!!!COM: Schubert, Franz
!!!CNT: Deutscher
!!!TXO: Deutsch
!!!OTL: "Pause"
!!!OPR: Die schoene Muellerin
!!!LYR: Mu2ller, Wilhelm
!!!OPS: Opus 25
!!!ONM: No. 12
!!!ODT: 1823/
!!NB: Vocal melody only encoded.
**kern	**silbe
*clefG2	*
*k[b-e-]	*
*M4/4	*
*MM[geschwind]	*
=9	=9
2r	.
{4.f	{Mei-
8f	-ne
=10	=10
4dd	Lau-
4b-	-te
4dd	hab'
8cc	ich
8b-	ge-
=11	=11
4a	-ha2ngt
8g	an
8a	die
2b-}	Wand,}
=12	=12
2r	.
{4f	{hab'
8f	sie
8f	um
=13	=13
4dd	schlun-
4b-	-gen
4dd	mit
8cc	ein-
8b-	-em
=14	=14
4a	gru2-
32b-q	|
32aq	|
8g	-nen
8a	|
4b-}	Band;}
8r	.
{8b-	{ich
=15	=15
4dd	kann
8cc	nicht
8b-	mehr
4a	sin-
8b-	-gen,
8cc	mein
=16	=16
4dd	Herz
8cc	ist
8b-	zu
4a}	voll,}
4r	.
=17	=17
2r	.
{4dd	{weiss
4b-	nicht,
=18	=18
4f	wie
8f	ich's
8f	in
4.dd	Rei-
8b-	-me
=19	=19
4a	zwin-
8g	-gen
8a	|
2b-}	soll.}
=21	=21
{8dd	{Mei-
8cc	|
8cc	-ner
8b-	|
4b-	Sehn
4b-	sucht
=22	=22
4a	al-
4a	-ler
4cc	hei-
8b-	-sse-
8a	-sten
=23	=23
(2b-	Schmerz
4a)}	|}
4r	.
=24	=24
{(4cc	{durft'
8b-	|
8a)	|
8g	ich
8dd	|
8.dd	aus-
16g	|
=25	=25
8g	-hau-
8bn	|
8dd	-chen
8ff	in
8ff	Lie-
8een	|
8dd	-der-
8een	|
=26	=26
2cc}	-scherz,}
2r	.
=27	=27
{8dd	{und
8cc	|
8cc	wie
8b-	ich
4b-	klag-
4b-	-te
=28	=28
4r	.
4a	so
4cc	su2ss
8b-	und
8a	|
=29	=29
(2b-	fein,
4a)}	|}
4r	.
=30	=30
{8cc	{glaubt'
8b-	|
8b-	ich
8a	|
4g	doch,
4dd	mein
=31	=31
4.ff	Lei-
8f	-den
8en	wa2r'
8g	|
8dd	nicht
8cc	|
=32	=32
2a}	klein.}
2r	.
=33	=33
2r	.
{4.a	{Ei,
8a	wie
=34	=34
4b-	gross
8b-	ist
8b-	wohl
8.cc	mein-
16cc	-es
8b-	Glu2-
8cc	-ckes
=35	=35
2dd-}	Last,}
{8ff	{dass
8ee-	|
8dd-	lein
8cc	|
=36	=36
8cc	Klang
8b-	|
8b-	auf
8dd-	|
8dd-	Er-
8cc	|
8cc	-den
8ee-	es
=37	=37
8ee-	in
8dd-	|
8gg-	sich
8ff	|
2ee-}	fasst,}
=38	=38
{8ff	{dass
8ee-	|
8dd-	kein
8cc	|
8cc	Klang
8b-	|
8b-	auf
8cc	|
=39	=39
8cc	Er-
8b-	|
8b-	-den
8cc	es
8cc	in
8b-	|
8b-	sich
8cc	|
=40	=40
2an}	fasst?}
2r	.
=46	=46
2r	.
{4f	{Nun,
8f	lie-
8f	-be
=47	=47
4dd	Lau-
4b-	-te,
4dd	ruh'
8cc	an
8b-	dem
=48	=48
4a	Na-
8g	-gel
8a	|
2b-}	hier!}
=49	=49
4r	.
8r	.
{8f	{und
4.f	weht
8f	ein
=50	=50
4dd	Lu2ft-
4b-	-chen
8ff	u2-
8dd	|
8cc	-ber
8b-	die
=51	=51
4a	Sai-
8g	-ten
8a	|
4.b-}	dir,}
{8dd	{und
=52	=52
4ee-	streift
8dd	ei-
8cc	-ne
4b-	Bie-
8cc	-ne
8dd	mit
=53	=53
8.dd	ih-
16ee-	-ren
12ee-	Flu2-
12dd	|
12cc	-geln
4.b-}	dich,}
{8b-	{da
=54	=54
4bn	wird
8bn	mir
8bn	so
8bn	ban-
8cc	|
4cc	-ge,
=55	=55
4dd	und
8g	es
8dd	durch
8.ff	schau-
16ee-	-ert
4ee-}	mich.}
=57	=57
4r	.
8r	.
{8e-	{Wa-
2cc	-rum
=58	=58
4e-	liess
8f	ich
8g	das
4.a-	Band
8a-	auch
=59	=59
8cc	ha2n-
8b-	|
8a-	-gen
8b-	so
2cc}	lang?}
=60	=60
2r	.
4r	.
{4cc	{Oft
=61	=61
4e-	fliegt's
8f	um
8g	die
4a-	Sai-
8a-	-ten
8a-	mit
=62	=62
8cc	seuf
8b-	|
8a-	zen-
8b-	-dem
2cc}	Klang.}
=64	=64
{4cc-	{Ist
8cc-	es
8cc-	der
8cc-	Nach
8ff-	|
[4ff-	klang
=65	=65
4ff-]	|
8ff-	mei-
8ee-	-ner
4.ccn	Lie-
16dd-	-bes-
16ee-	|
=66	=66
2dd-}	-pein?}
{4b-	{Soll
8b-	es
8b-	das
=67	=67
4ff	Vor-
8dd-	-spiel
8b-	|
8f	neu-
8b-	|
8b-	-er
8dd-	|
=68	=68
2.ee-	Lie-
4a	-der
=69	=69
2b-}	sein?}
2r	.
=72	=72
{4cc-	{Ist
8cc-	es
8cc-	der
8cc-	Nach
8ff-	|
[4ff-	klang
=73	=73
4ff-]	|
8ff-	mei-
8ee-	-ner
4.ccn	Lie-
16dd-	-bes-
16ee-	|
=74	=74
2dd-}	-pein?}
{4b-	{Soll
8b-	es
8b-	das
=75	=75
4ff	Vor-
8ddn	-spiel
8b-	|
8f	neu-
8b-	|
8b-	-er
8dd	|
=76	=76
2.ee-	Lie-
4a	-der
=77	=77
2b-}	sein?}
2r	.
*-	*-
